// Creación audiovisual con lenguajes de programación sesión 2

// prendemos supercollider

// formas de onda

// SinOsc
// LFTri
// Saw
// Pulse
// WhiteNoise

// formas de ver las ondas con scope y freqscope

// SynthDef

SynthDef.help

// Llamar a un SynthDef